!!!COM: Palestrina, Giovanni Perluigi da
!!!OPR: Missa In festis Apostolorum (I)
!!!OTL: Kyrie
**kern	**kern	**kern	**kern	**kern
*Ibass	*Itenor	*Itenor	*Icalto	*Icant
!Bassus	!Tenor 2	!Tenor 1	!Altus	!Cantus
*clefF4	*clefGv2	*clefGv2	*clefG2	*clefG2
*k[]	*k[]	*k[]	*k[]	*k[]
*D:dor	*D:dor	*D:dor	*D:dor	*D:dor
*M4/2	*M4/2	*M4/2	*M4/2	*M4/2
=1	=1	=1	=1	=1
1D	0r	0r	0r	0r
2D	.	.	.	.
2C	.	.	.	.
=2	=2	=2	=2	=2
2D	1A	0r	0r	0r
1F	.	.	.	.
.	2A	.	.	.
2E	2G	.	.	.
=3	=3	=3	=3	=3
2D	2A	0r	1r	0r
2C	1c	.	.	.
1G	.	.	1d	.
.	2B	.	.	.
=4	=4	=4	=4	=4
2F	2A	0r	2d	1r
2E	2G	.	2c	.
[1D	1A	.	2d	1a
.	.	.	[2f	.
=5	=5	=5	=5	=5
2D]	1B	1r	2f]	2a
2E	.	.	2e	2g
1F	1A	2r	2d	2a
.	.	2A	2c	[2cc
=6	=6	=6	=6	=6
1E	0r	2A	2.e	2cc]
.	.	2G	.	2b
.	.	.	8d	.
.	.	.	8e	.
1AA	.	2A	2f	1a
.	.	[2c	[2e	.
=7	=7	=7	=7	=7
0r	0r	2c]	2e]	1g
.	.	2B	2d	.
.	.	2A	4c	2f
.	.	.	4A	.
.	.	2G	[2d	2g
=8	=8	=8	=8	=8
0r	2r	2A	2d]	2e
.	2e	1A	2c	2a
.	2A	.	1e	2cc
.	2B	2G	.	[2b
=9	=9	=9	=9	=9
0r	2c	2F	1f	4b]
.	.	.	.	4a
.	2d	2D	.	1a
.	1B	1E	2.e	.
.	.	.	.	2g#
.	.	.	4d	.
=10	=10	=10	=10	=10
2r	0A	2.F	2c	0a
1D	.	.	2d	.
.	.	4E	.	.
.	.	2D	2f	.
2C	.	2E	[2e	.
=11	=11	=11	=11	=11
2BB-	1r	2F	4e]	1b-
.	.	.	4d	.
2GG	.	2G	1d	.
1AA	2r	2E	.	1a
.	2E	[2e	2c	.
=12	=12	=12	=12	=12
0r	2G	4e]	2B-	2r
.	.	4d	.	.
.	2A	2c	2A	2e
.	2E	2B	1r	2g
.	2F	2A	.	2a
=13	=13	=13	=13	=13
0r	2.G	1B	2r	2.d
.	.	.	2B	.
.	8F	.	.	4e
.	8E	.	.	.
.	2D	1r	2d	2f
.	2C	.	2e	[2g
=14	=14	=14	=14	=14
0r	4D	0r	2.A	2g]
.	4E	.	.	.
.	4F	.	.	2f
.	4G	.	4B	.
.	2A	.	2c	2e
.	2B	.	2d	2d
=15	=15	=15	=15	=15
0r	1A	2r	2c	2e
.	.	2A	2f	2.a
.	1r	2c	2e	.
.	.	.	.	4g
.	.	2d	[2d	2f
=16	=16	=16	=16	=16
1r	1r	2G	2d]	1e
.	.	2A	2c	.
2r	1A	4D	2.f	1d
.	.	4E	.	.
2D	.	4F	.	.
.	.	4G	4e	.
=17	=17	=17	=17	=17
2F	2A	2A	1d	1r
2G	2B	2.G	.	.
2.C	[1c	.	1e	2r
.	.	4F	.	.
.	.	4E	.	2e
4D	.	4D	.	.
=18	=18	=18	=18	=18
2E	2c]	2C	1r	2g
2F	2A	2c	.	2a
1G	1B	2B	2r	2.d
.	.	2G	[2d	.
.	.	.	.	4e
=19	=19	=19	=19	=19
1D	2r	1.A	2d]	4f
.	.	.	.	4g
.	2A	.	2f	2.a
1r	2c	.	2e	.
.	.	.	.	4g
.	2d	2D	2a	2f
=20	=20	=20	=20	=20
1r	1G	2r	1g	1b-
.	.	1d	.	.
2r	[1A	.	[1e	1a
2AA	.	2c	.	.
=21	=21	=21	=21	=21
2C	1A]	2e	2e]	2r
2D	.	2.d	2f	2a
2.GG	1G	.	2g	2b
.	.	4c	.	.
.	.	4B	[2g	4dd
4AA	.	4A	.	4cc
=22	=22	=22	=22	=22
2BB	2D	2.G	4g]	4b
.	.	.	4f	4a
1C	2E	.	4e	2.g
.	.	4F	4d	.
.	[1G	2E	2c	.
.	.	.	.	4a
2BB	.	2D	2d	2b
=23	=23	=23	=23	=23
0AA	2G]	0A	2e	2cc
.	2F	.	1d	2.a
.	1E	.	.	.
.	.	.	.	4g
.	.	.	2c#	2e
=24	=24	=24	=24	=24
[0D	[0D	[0A	[0d	[0f#
=25	=25	=25	=25	=25
0D]	0D]	0A]	0d]	0f#]
=26	=26	=26	=26	=26
1A	0r	0r	0r	0r
2A	.	.	.	.
2G	.	.	.	.
=27	=27	=27	=27	=27
1A	0r	1e	0r	0r
2G	.	2e	.	.
2F	.	2d	.	.
=28	=28	=28	=28	=28
2G	0r	1e	0r	1r
2A	.	.	.	.
2.F	.	2d	.	1a
.	.	2c	.	.
4E	.	.	.	.
=29	=29	=29	=29	=29
2D	0r	2d	0r	2a
2E	.	2B	.	2g
1F	.	4A	.	1a
.	.	4B	.	.
.	.	4c	.	.
.	.	4A	.	.
=30	=30	=30	=30	=30
2G	0r	2B	1d	2g
2D	.	2A	.	2f
1E	.	1G	2d	[1g
.	.	.	2c	.
=31	=31	=31	=31	=31
1D	1A	0r	1d	2g]
.	.	.	.	2f
1r	2A	.	2c	2e
.	2G	.	2B	[2e
=32	=32	=32	=32	=32
0r	1A	0r	2.c	2e]
.	.	.	.	2f
.	.	.	4d	.
.	2G	.	4e	2g
.	.	.	4d	.
.	2F	.	2f	2a
=33	=33	=33	=33	=33
0r	1G	1r	2e	2.g
.	.	.	1d	.
.	.	.	.	4f
.	1A	2r	.	1e
.	.	[2A	2c	.
=34	=34	=34	=34	=34
1D	1r	2A]	4f	1d
.	.	.	4e	.
.	.	2B	4d	.
.	.	.	4c	.
2E	2r	2G	2B	1r
2C	2e	2A	[2A	.
=35	=35	=35	=35	=35
2D	2d	1B	2A]	0r
2E	2B	.	2G#	.
2AA	4c	2A	1A	.
.	4d	.	.	.
2A	4e	[2c	.	.
.	4c	.	.	.
=36	=36	=36	=36	=36
1G	1d	2c]	2r	0r
.	.	2B	2d	.
2E	4c	1c	2e	.
.	4B	.	.	.
[2F	4A	.	2c	.
.	4G	.	.	.
=37	=37	=37	=37	=37
2F]	2A	0r	2d	2r
2E	2G	.	2e	2g
1D	4F	.	2A	2a
.	4G	.	.	.
.	4A	.	2d	2f
.	4F	.	.	.
=38	=38	=38	=38	=38
2C	1c	1r	2e	2g
2AA	.	.	1f	2a
2BB-	1r	2r	.	2d
2C	.	2G	4e	2e
.	.	.	4d	.
=39	=39	=39	=39	=39
1FF	0r	2A	2c	1f
.	.	2F	1d	.
1r	.	2G	.	1e
.	.	2A	2c	.
=40	=40	=40	=40	=40
0r	2r	1D	2B	2d
.	2d	.	4A	2a
.	.	.	4B	.
.	2e	1r	4c	2g
.	.	.	4d	.
.	2c	.	2e	2a
=41	=41	=41	=41	=41
0r	2d	1r	2f	2b
.	2e	.	2g	1cc
.	2A	2r	2a	.
.	2B	2G	2g	2b
=42	=42	=42	=42	=42
2r	2c	2A	2e	1a
2D	2d	2F	2f	.
2E	2B	2G	1e	2g
2C	2c	[2A	.	2e
=43	=43	=43	=43	=43
2D	1B	2A]	1r	2f
2E	.	2G	.	2e
2AA	1A	4A	1c	1e
.	.	4B	.	.
2A	.	4c	.	.
.	.	4A	.	.
=44	=44	=44	=44	=44
1G	0r	1B	2d	2r
.	.	.	2B	2g
2F	.	1A	2c	2a
2D	.	.	2d	2f
=45	=45	=45	=45	=45
1E	2r	1r	4G	1g
.	.	.	4A	.
.	2G	.	4B	.
.	.	.	4c	.
1D	2A	2r	4d	4f
.	.	.	4e	4g
.	2F	2d	2f	4a
.	.	.	.	4b
=46	=46	=46	=46	=46
2C	2G	2e	2e	1cc
2AA	2A	2c	2.f	.
1BB-	4D	2d	.	2.f
.	4E	.	4e	.
.	4F	2D	2d	.
.	4D	.	.	4g
=47	=47	=47	=47	=47
0AA	2E	0A	2c#	0a
.	2F	.	1d	.
.	1E	.	.	.
.	.	.	2c#	.
=48	=48	=48	=48	=48
[0D	[0D	[0F#	[0d	[0a
=49	=49	=49	=49	=49
0D]	0D]	0F#]	0d]	0a]
=50	=50	=50	=50	=50
0r	0r	0r	1A	1r
.	.	.	1d	1d
=51	=51	=51	=51	=51
0r	0r	0r	2d	1a
.	.	.	2c	.
.	.	.	2d	2a
.	.	.	2e	2g
=52	=52	=52	=52	=52
0r	0r	0r	2.f	2a
.	.	.	.	2.cc
.	.	.	4e	.
.	.	.	2c	.
.	.	.	.	4b
.	.	.	2e	2g
=53	=53	=53	=53	=53
0r	0r	1D	2d	2b
.	.	.	2.f	2a
.	.	1A	.	[1cc
.	.	.	4e	.
.	.	.	4c	.
.	.	.	4d	.
=54	=54	=54	=54	=54
0r	0r	2A	4e	2cc]
.	.	.	4f	.
.	.	2G	2g	2b
.	.	2A	2f	1a
.	.	[2c	[2e	.
=55	=55	=55	=55	=55
1r	0r	4c]	4e]	2.g
.	.	4B	4d	.
.	.	2G	1d	.
.	.	.	.	4f
1AA	.	1A	.	1e
.	.	.	2c#	.
=56	=56	=56	=56	=56
1D	1D	1.A	2.d	2.f
.	.	.	4e	4g
2D	1A	.	2f	1a
2C	.	2c	2e	.
=57	=57	=57	=57	=57
2D	2A	1B	2f	0r
2E	2G	.	4e	.
.	.	.	4d	.
2.F	2A	2.A	2c	.
.	[2c	.	2f	.
4E	.	4B	.	.
=58	=58	=58	=58	=58
2C	4c]	2c	2e	0r
.	4B	.	.	.
2E	2G	2B	2g	.
2D	4B	2d	2f	.
.	4A	.	.	.
4C	[2c	2G	[2e	.
4BB	.	.	.	.
=59	=59	=59	=59	=59
2AA	4c]	1A	4e]	1r
.	4B	.	4d	.
2C	1A	.	4e	.
.	.	.	4c	.
1BB	.	1D	1d	2r
.	2G#	.	.	2b
=60	=60	=60	=60	=60
1AA	1A	1E	2c	2.cc
.	.	.	2e	.
.	.	.	.	4b
1r	1r	1r	2f	2a
.	.	.	2e	2g
=61	=61	=61	=61	=61
0r	0r	2r	2d	2f
.	.	2A	2c	2e
.	.	2G	2B	2g
.	.	[2F	2A	[2a
=62	=62	=62	=62	=62
0r	1r	2F]	2c	4a]
.	.	.	.	4g
.	.	2D	1d	2f
.	2r	1A	.	1e
.	2A	.	2c	.
=63	=63	=63	=63	=63
2r	2B-	2D	2.f	1d
2D	1A	1F	.	.
.	.	.	8e	.
.	.	.	8d	.
2F	.	.	1c	1r
2E	2G	2G	.	.
=64	=64	=64	=64	=64
2D	2F	1A	0r	2r
2C	2E	.	.	2e
2BB	2G	1r	.	2d
2AA	[2A	.	.	[2c
=65	=65	=65	=65	=65
2C	4A]	0r	1r	2c]
.	4G	.	.	.
1D	2F	.	.	2A
.	1E	.	2r	1e
2C#	.	.	2e	.
=66	=66	=66	=66	=66
1D	1D	2r	2.f	1A
.	.	2A	.	.
.	.	.	4e	.
1r	1r	2B-	2d	2r
.	.	2A	2c	2a
=67	=67	=67	=67	=67
0r	0r	2G	1d	2b-
.	.	2F	.	2a
.	.	2E	2e	2.g
.	.	2G	2d	.
.	.	.	.	4f
=68	=68	=68	=68	=68
0r	1r	0A	2c#	2e
.	.	.	1d	2d
.	2r	.	.	1e
.	2A	.	2c#	.
=69	=69	=69	=69	=69
2r	2B-	0r	1d	2d
2D	1A	.	.	1f
2F	.	.	2r	.
2E	2G	.	2e	2g
=70	=70	=70	=70	=70
2D	4F	0r	2f	1a
.	4D	.	.	.
2C	4E	.	2e	.
.	4F	.	.	.
2BB	2G	.	2d	1r
2AA	[2A	.	2c	.
=71	=71	=71	=71	=71
1BB	2A]	1r	2d	2r
.	2G#	.	2B	2b
2AA	[1A	2r	1e	2.cc
[2AA	.	2E	.	.
.	.	.	.	4b
=72	=72	=72	=72	=72
2AA]	0A]	2F	2r	2a
2C	.	2E	2e	2g
[1D	.	4D	2.f	4f
.	.	4E	.	4e
.	.	4F	.	4d
.	.	4G	4e	4e
=73	=73	=73	=73	=73
1D]	[0A	2A	2d	4f
.	.	.	.	4g
.	.	1d	2f	4a
.	.	.	.	4b-
1AA	.	.	1e	1a
.	.	2c#	.	.
=74	=74	=74	=74	=74
[0D	1A_	[0d	[0f#	[0a
.	1A_	.	.	.
=75	=75	=75	=75	=75
0D]	0A]	0d]	0f#]	0a]
==	==	==	==	==
*-	*-	*-	*-	*-
!!!CDT: 1525/^1526/-1594/2/2
!!!OCY: Italia
!!!AGN: Mass (Paraphrase)
!!!AST: renaissance, vocal
!!!ASW: Gregorian Mass
!!!PWK: Masses, Book Mantuan II
!!!RNB: Cadence finals: A,E
!!!YOR: Le Opere Complete, v. 19, p. 43
!!!YOO: Rome, Italy: Fratelli Scalera
!!!END: 1992//
!!!EED: John Miller
!!!YEC: Copyright 2000, John Miller
!!!YEN: United States of America
!!!YEM: Rights to all derivative electronic formats reserved.
!!!YEM: Refer to licensing agreement for further details.
!!!YEM: This file must be accompanied by the licensing agreement.
!!!YEM: A copy of the licensing agreement may be found at http://www.music-cog.ohio-state.edu/HumdrumDatabases/Palestrina/license.txt
!!!EMD: converted to Humdrum by Bret Aarden
